azure-patterns/svg-graph-visualization.svg

<svg xmlns="http://www.w3.org/2000/svg" viewBox="0 0 49 49">
                                
                            
<path d="M24.6862 25.2983L23.7839 24.4146L16.7424 31.5771C16.3714 31.3583 15.9329 31.2404 15.4775 31.2404C14.0776 31.2404 12.9561 32.3683 12.9561 33.757C12.9561 35.1542 14.0861 36.2736 15.4775 36.2736C16.8773 36.2736 17.9989 35.1457 17.9989 33.757C17.9989 33.2857 17.8724 32.848 17.6447 32.4693L24.6862 25.2983Z" fill="#50E6FF"></path>
<path d="M29.3915 32.4188C29.1216 32.4188 28.8686 32.444 28.6156 32.4945L24.804 24.5829L23.6655 25.13L27.435 32.9574C26.3388 33.6223 25.6051 34.8175 25.6051 36.1894C25.6051 38.2767 27.2917 39.9685 29.3915 39.9685C31.4912 39.9685 33.1778 38.2851 33.1778 36.1894C33.1778 34.0937 31.4828 32.4188 29.3915 32.4188Z" fill="#50E6FF"></path>
<path d="M38.2377 26.182C37.2932 26.182 36.4752 26.6955 36.0451 27.4614L24.3993 24.2462L24.062 25.4666L35.7163 28.6818C35.7163 28.6902 35.7163 28.6986 35.7163 28.6986C35.7163 30.0958 36.8463 31.2152 38.2377 31.2152C39.6376 31.2152 40.7591 30.0874 40.7591 28.6986C40.7591 27.3099 39.6376 26.182 38.2377 26.182Z" fill="#50E6FF"></path>
<path d="M24.5002 24.2883L16.6492 20.5513C16.6998 20.3072 16.7251 20.0463 16.7251 19.7854C16.7251 17.6981 15.0385 16.0063 12.9387 16.0063C10.8389 16.0063 9.15234 17.6897 9.15234 19.7854C9.15234 21.8812 10.8389 23.5645 12.9387 23.5645C14.3217 23.5645 15.5276 22.8322 16.1854 21.7297L23.9521 25.4245L24.5002 24.2883Z" fill="#50E6FF"></path>
<path d="M45.8272 13.6414C44.4274 13.6414 43.3058 14.7692 43.3058 16.1579C43.3058 16.3768 43.3311 16.5956 43.3901 16.7976L24.0029 24.2631L24.4583 25.4415L44.0142 17.9086C44.4695 18.3799 45.1189 18.6745 45.8272 18.6745C47.2271 18.6745 48.3487 17.5467 48.3487 16.1579C48.3487 14.7692 47.2271 13.6414 45.8272 13.6414Z" fill="#50E6FF"></path>
<path d="M25.411 13.473C25.411 12.0758 24.281 10.9564 22.8896 10.9564C21.4897 10.9564 20.3682 12.0842 20.3682 13.473C20.3682 14.7523 21.3211 15.8044 22.5607 15.9643L23.6064 24.928L24.8629 24.7849L23.8172 15.8128C24.7533 15.4509 25.411 14.5335 25.411 13.473Z" fill="#50E6FF"></path>
<path d="M24.2305 29.8686C27.0016 29.8686 29.248 27.6265 29.248 24.8607C29.248 22.0949 27.0016 19.8528 24.2305 19.8528C21.4593 19.8528 19.2129 22.0949 19.2129 24.8607C19.2129 27.6265 21.4593 29.8686 24.2305 29.8686Z" fill="#0078D4"></path>
<path d="M19.3652 8.524C18.6568 8.524 18.0918 7.95167 18.0918 7.25309C18.0918 6.55451 18.6652 5.98218 19.3652 5.98218C20.0735 5.98218 20.6385 6.55451 20.6385 7.25309C20.6385 7.95167 20.0735 8.524 19.3652 8.524Z" fill="#0078D4"></path>
<path d="M9.16936 41.2563C8.461 41.2563 7.896 40.684 7.896 39.9854C7.896 39.2868 8.46943 38.7145 9.16936 38.7145C9.86929 38.7145 10.4427 39.2868 10.4427 39.9854C10.4427 40.684 9.87772 41.2563 9.16936 41.2563Z" fill="#50E6FF"></path>
<path d="M44.6718 31.3247C43.9634 31.3247 43.3984 30.7523 43.3984 30.0537C43.3984 29.3552 43.9719 28.7828 44.6718 28.7828C45.3802 28.7828 45.9452 29.3552 45.9452 30.0537C45.9452 30.7523 45.3802 31.3247 44.6718 31.3247Z" fill="#50E6FF"></path>
<path d="M21.5745 44.0843L25.0067 24.0275L10.1817 27.4194C9.76002 26.6282 8.92517 26.098 7.96382 26.098C6.56396 26.098 5.44238 27.2258 5.44238 28.6145C5.44238 30.0117 6.57239 31.1311 7.96382 31.1311C9.34681 31.1311 10.4684 30.0201 10.4852 28.6398L23.4466 25.6771L20.3349 43.8654C19.0362 43.9664 18.0074 45.0522 18.0074 46.3736C18.0074 47.7708 19.1374 48.8902 20.5288 48.8902C21.9287 48.8902 23.0503 47.7623 23.0503 46.3736C23.0503 45.3552 22.4515 44.4799 21.5745 44.0843Z" fill="#0078D4"></path>
<path d="M35.7078 10.948C34.3079 10.948 33.1864 12.0758 33.1864 13.4646C33.1864 13.9359 33.3129 14.3736 33.5405 14.7523L23.7837 24.4062L24.6776 25.3068L34.4429 15.6445C34.8139 15.8633 35.2524 15.9896 35.7162 15.9896C37.1161 15.9896 38.2377 14.8617 38.2377 13.473C38.2292 12.0758 37.1077 10.948 35.7078 10.948Z" fill="#0078D4"></path>
<path d="M31.9296 43.7896C31.2213 43.7896 30.6562 43.2173 30.6562 42.5187C30.6562 41.8201 31.2297 41.2478 31.9296 41.2478C32.6295 41.2478 33.203 41.8201 33.203 42.5187C33.203 43.2173 32.638 43.7896 31.9296 43.7896Z" fill="#0078D4"></path>
<path d="M41.9648 8.43989C41.2564 8.43989 40.6914 7.86756 40.6914 7.16898C40.6914 6.4704 41.2648 5.89807 41.9648 5.89807C42.6647 5.89807 43.2381 6.4704 43.2381 7.16898C43.2381 7.86756 42.6731 8.43989 41.9648 8.43989Z" fill="#50E6FF"></path>
</svg>

<svg xmlns="http://www.w3.org/2000/svg" viewBox="0 0 49 49"><path d="M24.686 25.298l-.902-.883-7.042 7.162a2.493 2.493 0 0 0-1.265-.337 2.515 2.515 0 0 0-2.52 2.517 2.515 2.515 0 0 0 2.52 2.517 2.515 2.515 0 0 0 2.168-3.805l7.041-7.17z" fill="#50E6FF"/><path d="M29.392 32.419c-.27 0-.523.025-.776.076l-3.812-7.912-1.138.547 3.769 7.827a3.774 3.774 0 0 0 1.957 7.011c2.1 0 3.786-1.683 3.786-3.779a3.77 3.77 0 0 0-3.786-3.77z" fill="#50E6FF"/><path d="M38.238 26.182c-.945 0-1.763.514-2.193 1.28L24.4 24.245l-.337 1.22 11.654 3.216v.017a2.515 2.515 0 0 0 2.522 2.516c1.4 0 2.521-1.128 2.521-2.516a2.515 2.515 0 0 0-2.521-2.517z" fill="#50E6FF"/><path d="M24.5 24.288l-7.85-3.737c.05-.244.075-.505.075-.766a3.777 3.777 0 0 0-3.786-3.779 3.772 3.772 0 0 0-3.787 3.78 3.772 3.772 0 0 0 3.787 3.778 3.767 3.767 0 0 0 3.246-1.834l7.767 3.694.548-1.136z" fill="#50E6FF"/><path d="M45.827 13.641a2.515 2.515 0 0 0-2.437 3.157l-19.387 7.465.455 1.178 19.556-7.532a2.523 2.523 0 0 0 1.813.765 2.515 2.515 0 1 0 0-5.033z" fill="#50E6FF"/><path d="M25.411 13.473a2.515 2.515 0 0 0-2.521-2.517 2.515 2.515 0 0 0-.33 5.008l1.046 8.964 1.257-.143-1.046-8.972a2.508 2.508 0 0 0 1.594-2.34z" fill="#50E6FF"/><path d="M24.23 29.869a5.013 5.013 0 0 0 5.018-5.008 5.013 5.013 0 0 0-5.018-5.008 5.013 5.013 0 0 0-5.017 5.008 5.013 5.013 0 0 0 5.017 5.008zM19.365 8.524a1.271 1.271 0 1 1 0-2.542 1.271 1.271 0 1 1 0 2.542z" fill="#0078D4"/><path d="M9.17 41.256a1.271 1.271 0 1 1 0-2.541c.7 0 1.273.572 1.273 1.27 0 .699-.565 1.271-1.274 1.271zM44.672 31.325a1.271 1.271 0 1 1 0-2.542 1.271 1.271 0 1 1 0 2.542z" fill="#50E6FF"/><path d="M21.575 44.084l3.432-20.057-14.825 3.392a2.503 2.503 0 0 0-2.218-1.321 2.515 2.515 0 0 0-2.522 2.517 2.515 2.515 0 0 0 2.522 2.516 2.52 2.52 0 0 0 2.521-2.491l12.962-2.963-3.112 18.188a2.515 2.515 0 0 0 .194 5.025c1.4 0 2.521-1.128 2.521-2.516a2.503 2.503 0 0 0-1.476-2.29z" fill="#0078D4"/><path d="M35.708 10.948a2.515 2.515 0 0 0-2.167 3.804l-9.757 9.654.894.9 9.765-9.662c.37.22.81.346 1.273.346 1.4 0 2.522-1.128 2.522-2.517a2.53 2.53 0 0 0-2.53-2.525zM31.93 43.79a1.271 1.271 0 1 1 0-2.542c.7 0 1.273.572 1.273 1.27 0 .7-.565 1.272-1.273 1.272z" fill="#0078D4"/><path d="M41.965 8.44a1.271 1.271 0 1 1 0-2.542 1.271 1.271 0 0 1 0 2.542z" fill="#50E6FF"/></svg>
